TGraph/tickxy.svg

<svg xmlns="http://www.w3.org/2000/svg" viewBox="0 0 1200 800" preserveAspectRatio="none" width="1200" height="800">
 <path d="M0,0H1200V800H0Z" style="fill: white;"></path>
 <g>
  <g transform="translate(120,80)">
   <path d="M0,0H960V640H0Z" style="fill: white; stroke: black; stroke-width: 1;"></path>
   <svg x="0" y="0" overflow="hidden" width="960" height="640" viewBox="0 0 960 640">
    <g>
     <path d="M0,587l46,-65l46,-62l46,-60l46,-57l46,-53l46,-49l46,-44l45,-38l46,-34l46,-27l46,-21l46,-14l46,-8l46,-2l46,6l46,11l46,19l46,24l46,31" style="stroke: red; stroke-width: 4; fill: none;"></path>
     <path d="M-6,581v12h12v-12zM40,516v12h12v-12zM86,454v12h12v-12zM132,394v12h12v-12zM178,337v12h12v-12zM224,284v12h12v-12zM270,235v12h12v-12zM316,191v12h12v-12zM361,153v12h12v-12zM407,119v12h12v-12zM453,92v12h12v-12zM499,71v12h12v-12zM545,57v12h12v-12zM591,49v12h12v-12zM637,47v12h12v-12zM683,53v12h12v-12zM729,64v12h12v-12zM775,83v12h12v-12zM821,107v12h12v-12zM867,138v12h12v-12z" style="stroke: blue; fill: blue;"></path>
    </g>
   </svg>
   <g>
    <g transform="translate(0,640)">
     <path d="M0,0h960M0,-640h960M0,-24v24m23,-12v12m23,-12v12m23,-12v12m23,-24v24m23,-12v12m23,-12v12m23,-12v12m23,-24v24m23,-12v12m23,-12v12m23,-12v12m23,-24v24m23,-12v12m23,-12v12m22,-12v12m23,-24v24m23,-12v12m23,-12v12m23,-12v12m23,-24v24m23,-12v12m23,-12v12m23,-12v12m23,-24v24m23,-12v12m23,-12v12m23,-12v12m23,-24v24m23,-12v12m23,-12v12m23,-12v12m23,-24v24m23,-12v12m23,-12v12m23,-12v12m23,-24v24m23,-12v12m23,-12v12m23,-12v12m23,-24v24m23,-12v12M0,-616V-640M23,-628V-640M46,-628V-640M69,-628V-640M92,-616V-640M115,-628V-640M138,-628V-640M161,-628V-640M184,-616V-640M207,-628V-640M230,-628V-640M253,-628V-640M276,-616V-640M299,-628V-640M322,-628V-640M344,-628V-640M367,-616V-640M390,-628V-640M413,-628V-640M436,-628V-640M459,-616V-640M482,-628V-640M505,-628V-640M528,-628V-640M551,-616V-640M574,-628V-640M597,-628V-640M620,-628V-640M643,-616V-640M666,-628V-640M689,-628V-640M712,-628V-640M735,-616V-640M758,-628V-640M781,-628V-640M804,-628V-640M827,-616V-640M850,-628V-640M873,-628V-640M896,-628V-640M919,-616V-640M942,-628V-640" style="stroke: black; stroke-width: 1;"></path>
     <g font-family="Arial" font-size="28" space="preserve" fill="black" text-anchor="middle">
      <text dy=".8em" transform="translate(0,6)">
       0
      </text>
      <text dy=".8em" transform="translate(92,6)">
       0.2
      </text>
      <text dy=".8em" transform="translate(184,6)">
       0.4
      </text>
      <text dy=".8em" transform="translate(276,6)">
       0.6
      </text>
      <text dy=".8em" transform="translate(367,6)">
       0.8
      </text>
      <text dy=".8em" transform="translate(459,6)">
       1
      </text>
      <text dy=".8em" transform="translate(551,6)">
       1.2
      </text>
      <text dy=".8em" transform="translate(643,6)">
       1.4
      </text>
      <text dy=".8em" transform="translate(735,6)">
       1.6
      </text>
      <text dy=".8em" transform="translate(827,6)">
       1.8
      </text>
      <text dy=".8em" transform="translate(919,6)">
       2
      </text>
     </g>
    </g>
    <g>
     <path d="M0,0v640M960,0v640M18,639h-18m18,-13h-18m18,-14h-18m18,-13h-18m36,-13h-36m18,-14h-18m18,-13h-18m18,-13h-18m18,-13h-18m36,-14h-36m18,-13h-18m18,-13h-18m18,-14h-18m18,-13h-18m36,-13h-36m18,-14h-18m18,-13h-18m18,-13h-18m18,-14h-18m36,-13h-36m18,-13h-18m18,-14h-18m18,-13h-18m18,-13h-18m36,-14h-36m18,-13h-18m18,-13h-18m18,-14h-18m18,-13h-18m36,-13h-36m18,-13h-18m18,-14h-18m18,-13h-18m18,-13h-18m36,-14h-36m18,-13h-18m18,-13h-18m18,-14h-18m18,-13h-18m36,-13h-36m18,-14h-18m18,-13h-18m18,-13h-18m18,-14h-18m36,-13h-36m18,-13h-18m18,-14h-18m18,-13h-18M942,639H960M942,626H960M942,612H960M942,599H960M924,586H960M942,572H960M942,559H960M942,546H960M942,533H960M924,519H960M942,506H960M942,493H960M942,479H960M942,466H960M924,453H960M942,439H960M942,426H960M942,413H960M942,399H960M924,386H960M942,373H960M942,359H960M942,346H960M942,333H960M924,319H960M942,306H960M942,293H960M942,279H960M942,266H960M924,253H960M942,240H960M942,226H960M942,213H960M942,200H960M924,186H960M942,173H960M942,160H960M942,146H960M942,133H960M924,120H960M942,106H960M942,93H960M942,80H960M942,66H960M924,53H960M942,40H960M942,26H960M942,13H960" style="stroke: black; stroke-width: 1;"></path>
     <g font-family="Arial" font-size="28" space="preserve" fill="black" text-anchor="end">
      <text dy=".4em" transform="translate(-4,586)">
       2
      </text>
      <text dy=".4em" transform="translate(-4,519)">
       3
      </text>
      <text dy=".4em" transform="translate(-4,453)">
       4
      </text>
      <text dy=".4em" transform="translate(-4,386)">
       5
      </text>
      <text dy=".4em" transform="translate(-4,319)">
       6
      </text>
      <text dy=".4em" transform="translate(-4,253)">
       7
      </text>
      <text dy=".4em" transform="translate(-4,186)">
       8
      </text>
      <text dy=".4em" transform="translate(-4,120)">
       9
      </text>
      <text dy=".4em" transform="translate(-4,53)">
       10
      </text>
     </g>
    </g>
   </g>
  </g>
  <g transform="translate(120,4)" font-family="Arial" font-size="40" space="preserve">
   <text fill="black" text-anchor="middle" dy=".8em" transform="translate(480)">
    Option ACP example
   </text>
  </g>
 </g>
</svg>

<svg xmlns="http://www.w3.org/2000/svg" viewBox="0 0 1200 800" preserveAspectRatio="none" width="1200" height="800">
 <path d="M0,0H1200V800H0Z" style="fill: white;"></path>
 <g>
  <g transform="translate(120,80)">
   <path d="M0,0H960V640H0Z" style="fill: white; stroke: black; stroke-width: 1;"></path>
   <svg x="0" y="0" overflow="hidden" width="960" height="640" viewBox="0 0 960 640">
    <g>
     <path d="M0,587l46,-65l46,-62l46,-60l46,-57l46,-53l46,-49l46,-44l45,-38l46,-34l46,-27l46,-21l46,-14l46,-8l46,-2l46,6l46,11l46,19l46,24l46,31" style="stroke: red; stroke-width: 4; fill: none;"></path>
     <path d="M-6,581v12h12v-12zM40,516v12h12v-12zM86,454v12h12v-12zM132,394v12h12v-12zM178,337v12h12v-12zM224,284v12h12v-12zM270,235v12h12v-12zM316,191v12h12v-12zM361,153v12h12v-12zM407,119v12h12v-12zM453,92v12h12v-12zM499,71v12h12v-12zM545,57v12h12v-12zM591,49v12h12v-12zM637,47v12h12v-12zM683,53v12h12v-12zM729,64v12h12v-12zM775,83v12h12v-12zM821,107v12h12v-12zM867,138v12h12v-12z" style="stroke: blue; fill: blue;"></path>
    </g>
   </svg>
   <g>
    <g transform="translate(0,640)">
     <path d="M0,0h960M0,-640h960M0,-24V0M23,-12V0M46,-12V0M69,-12V0M92,-24V0M115,-12V0M138,-12V0M161,-12V0M184,-24V0M207,-12V0M230,-12V0M253,-12V0M276,-24V0M299,-12V0M322,-12V0M344,-12V0M367,-24V0M390,-12V0M413,-12V0M436,-12V0M459,-24V0M482,-12V0M505,-12V0M528,-12V0M551,-24V0M574,-12V0M597,-12V0M620,-12V0M643,-24V0M666,-12V0M689,-12V0M712,-12V0M735,-24V0M758,-12V0M781,-12V0M804,-12V0M827,-24V0M850,-12V0M873,-12V0M896,-12V0M919,-24V0M942,-12V0M0,-616V-640M23,-628V-640M46,-628V-640M69,-628V-640M92,-616V-640M115,-628V-640M138,-628V-640M161,-628V-640M184,-616V-640M207,-628V-640M230,-628V-640M253,-628V-640M276,-616V-640M299,-628V-640M322,-628V-640M344,-628V-640M367,-616V-640M390,-628V-640M413,-628V-640M436,-628V-640M459,-616V-640M482,-628V-640M505,-628V-640M528,-628V-640M551,-616V-640M574,-628V-640M597,-628V-640M620,-628V-640M643,-616V-640M666,-628V-640M689,-628V-640M712,-628V-640M735,-616V-640M758,-628V-640M781,-628V-640M804,-628V-640M827,-616V-640M850,-628V-640M873,-628V-640M896,-628V-640M919,-616V-640M942,-628V-640" style="stroke: black; stroke-width: 1;"></path>
     <g font-family="Arial" font-size="28" space="preserve" fill="black" text-anchor="middle">
      <text dy=".8em" transform="translate(0,6)">
       0
      </text>
      <text dy=".8em" transform="translate(92,6)">
       0.2
      </text>
      <text dy=".8em" transform="translate(184,6)">
       0.4
      </text>
      <text dy=".8em" transform="translate(276,6)">
       0.6
      </text>
      <text dy=".8em" transform="translate(367,6)">
       0.8
      </text>
      <text dy=".8em" transform="translate(459,6)">
       1
      </text>
      <text dy=".8em" transform="translate(551,6)">
       1.2
      </text>
      <text dy=".8em" transform="translate(643,6)">
       1.4
      </text>
      <text dy=".8em" transform="translate(735,6)">
       1.6
      </text>
      <text dy=".8em" transform="translate(827,6)">
       1.8
      </text>
      <text dy=".8em" transform="translate(919,6)">
       2
      </text>
     </g>
    </g>
    <g>
     <path d="M0,0v640M960,0v640M18,639H0M18,626H0M18,612H0M18,599H0M36,586H0M18,572H0M18,559H0M18,546H0M18,533H0M36,519H0M18,506H0M18,493H0M18,479H0M18,466H0M36,453H0M18,439H0M18,426H0M18,413H0M18,399H0M36,386H0M18,373H0M18,359H0M18,346H0M18,333H0M36,319H0M18,306H0M18,293H0M18,279H0M18,266H0M36,253H0M18,240H0M18,226H0M18,213H0M18,200H0M36,186H0M18,173H0M18,160H0M18,146H0M18,133H0M36,120H0M18,106H0M18,93H0M18,80H0M18,66H0M36,53H0M18,40H0M18,26H0M18,13H0M942,639H960M942,626H960M942,612H960M942,599H960M924,586H960M942,572H960M942,559H960M942,546H960M942,533H960M924,519H960M942,506H960M942,493H960M942,479H960M942,466H960M924,453H960M942,439H960M942,426H960M942,413H960M942,399H960M924,386H960M942,373H960M942,359H960M942,346H960M942,333H960M924,319H960M942,306H960M942,293H960M942,279H960M942,266H960M924,253H960M942,240H960M942,226H960M942,213H960M942,200H960M924,186H960M942,173H960M942,160H960M942,146H960M942,133H960M924,120H960M942,106H960M942,93H960M942,80H960M942,66H960M924,53H960M942,40H960M942,26H960M942,13H960" style="stroke: black; stroke-width: 1;"></path>
     <g font-family="Arial" font-size="28" space="preserve" fill="black" text-anchor="end">
      <text dy=".4em" transform="translate(-4,586)">
       2
      </text>
      <text dy=".4em" transform="translate(-4,519)">
       3
      </text>
      <text dy=".4em" transform="translate(-4,453)">
       4
      </text>
      <text dy=".4em" transform="translate(-4,386)">
       5
      </text>
      <text dy=".4em" transform="translate(-4,319)">
       6
      </text>
      <text dy=".4em" transform="translate(-4,253)">
       7
      </text>
      <text dy=".4em" transform="translate(-4,186)">
       8
      </text>
      <text dy=".4em" transform="translate(-4,120)">
       9
      </text>
      <text dy=".4em" transform="translate(-4,53)">
       10
      </text>
     </g>
    </g>
   </g>
  </g>
  <g transform="translate(120,4)" font-family="Arial" font-size="40" space="preserve">
   <text fill="black" text-anchor="middle" dy=".8em" transform="translate(480)">
    Option ACP example
   </text>
  </g>
 </g>
</svg>
